X:1358
T:Valse de mon père
M:3/4
L:1/8
R:Waltz
Z:<http://tunes.nhcountrydance.com>.
K:D
|: F3 F GB | A3 F GB | A2 f3 f | f6     |\
   F3 F GB | A3 F GB | A2 e3 e | e4d2   |
   B3 A Bc | d2c2B2  | A3 F Ad | f2e2d2 |\
   c3 A ce | g2f2e2  | d3 c de |1 d2A2G2 :|2 d2A2d2 |] 
|: f3 f fg | f2e2d2  | B3 A Bc | B2c2d2 |\
   e3 d ef | e2c2A2  | a3 a ab | a2A2d2 |
   f3 f fg | f2e2d2  | B3 A Bc | B2c2d2 |\
   e3 d ef | e2c2A2  | d3 c de |1 d2A2d2 :|2 d2A2G2|]

